X:1
T:Call for Workers
T:John Henry Sheppard, 1906
T:Call for Workers
T:Public Domain
T:Public Domain
C:John Henry Sheppard, 1906
Z:Public Domain
%%score ( 1 2 ) ( 3 4 )
L:1/8
M:4/4
K:F
V:1 treble 
V:2 treble 
V:3 bass 
V:4 bass 
V:1
 [CF]2 [CF]2 [FA]2 [FA]2 | [Fc]2 [Fd]2 [Fc]2 [FA]>[EG] | [DF]2 [DF]2 [EG]2 [EG]2 | [FA]6 z2 | %4
w: 1.~In the vine- yard|of the Lord, There is|work for all to|do;|
w: 2.~Bro- ther, sis- ter,|hear the call! All a-|long, your aid af-|ford,|
w: 3.~Mark the spir- it’s|dire- ful fate, Where- so-|ev- er sin is|found;|
w: 4.~Oh, for work- ers|strong and brave, Who will|lift the ban- ner|high;|
 [CF]2 [CF]2 [FA]2 [FA]2 | [Fc]2 [Fd]2 [Fc]2 [FA]>[EG] | [DF]2 [DF]2 [FA]2 [CG]2 | [CF]6 || %8
w: Will you go and|work to- day, With a|pur- pose strong and|true?|
w: Let us strive to|save the lost Strive to|save by work and|word.|
w: Come, and lend a|help- ing hand, Let the|shack- les be un-|bound.|
w: So the lost can|see the way, To the|man- sions in the|sky.|
"^Refrain" [CA]>[Fc] | (A2 A>A A2) [Fd]>[Fd] | (F2 F>F F2) A2 | (z2 F2 F2 F>)[DA] | %12
w: ||||
w: Heed the|call, * * * bro- ther|For * * * work-|* * * to-|
w: ||||
w: ||||
 (E2 E>E) E2 [CA]>[Fc] | (A2 A>A A2) [Fd]>[Fd] | (F2 F>F F2) [CF]2 | (C2 F2 F2) [CF]>[CG] | %16
w: ||||
w: your * * eyes see the|Of * * * work- ers|day. * * * *||
w: ||||
w: ||||
 [CF]6 z2 |] %17
w: |
w: |
w: |
w: |
V:2
 x8 | x8 | x8 | x8 | x8 | x8 | x8 | x6 || x2 | f3 x5 | c6 x2 | A6 F3/2 x/ | c6 x2 | f6 x2 | c6 x2 | %15
w: |||||||||||||||
w: |||||||||dear,|ers|day; Let|need|to-||
 A6 x2 | x8 |] %17
w: ||
w: ||
V:3
 [F,A,]2 [F,A,]2 [F,C]2 [F,C]2 | [F,A,]2 [F,B,]2 [F,A,]2 [F,C]>[C,B,] | %2
w: ~ ~ ~ ~|~ ~ ~ ~ ~|
 [D,A,]2 [D,A,]2 [C,C]2 [C,C]2 | [F,C]6 z2 | [F,A,]2 [F,A,]2 [F,C]2 [F,C]2 | %5
w: ~ ~ ~ ~|~|~ ~ ~ ~|
 [F,A,]2 [F,B,]2 [F,A,]2 [F,C]>[C,B,] | [D,A,]2 [D,A,]2 [C,C]2 [C,B,]2 | [F,A,]6 || F,>[F,A,] | %9
w: ~ ~ ~ ~ ~|~ ~ ~ ~|~|Heed the|
 [F,C]2 [F,C]>[F,C] [F,C]2 [F,B,]>[F,B,] | [F,A,]2 [F,A,]>[F,A,] [F,A,]2 z2 | %11
w: bro- ther dear, heed the call,|bro- ther dear, For|
 z2 [F,C]2 [D,D]2 [D,A,]>[D,F,] | [C,G,]2 [E,G,]>G, [C,G,]2 F,>[F,A,] | %13
w: work- ers, for work-|ers to- day; Let your eyes|
 [F,C]2 [F,C]>[F,C] [F,C]2 [F,B,]>[F,B,] | [F,A,]2 [F,A,]>[F,A,] [F,A,]2 [F,A,]2 | %15
w: need, let your eyes see the|need Of work- ers, work-|
 F,2 [D,A,]2 [C,C]2 [C,A,]>[C,B,] | [F,A,]6 z2 |] %17
w: ers, to- day. * *||
V:4
 x8 | x8 | x8 | x8 | x8 | x8 | x8 | x6 || F,3/2 x/ | x8 | x8 | x8 | x7/2 G,/ x3/2 F,3/2 x | x8 | %14
w: ||||||||call,||||see the||
 x8 | F,2 x6 | x8 |] %17
w: |||

